X: 1658
T: The Light In the Window
M:4/4
L:1/8
B:O'Neill's 1658
N:"collected by J.O'Neill"
K:G
B>c \
| d>cB>d c>AF>A | G>FG>A G2 A>B | c>BA>B c>BA>G | F>GE>F D2 B>c |
| d>cB>d c>A F>A | G>gf>a g2 d>e | f>dB>d c>AF>A | G>FG>A G2 :|
|: B>c \
| d>Bb>g d>BG>B | d>cA>B G2 A>B | c>Aa>g f>ed>c | B>dc>e d2 B>c |
| d>Bb>gd>BG>B | d>gf>a d2 d>e | f>dB>d c>AF>A | G>FG>A G2 :|


